assets/icons/paper-plane.svg

<?xml version="1.0" encoding="UTF-8"?>
<svg width="50px" height="50px" viewBox="0 0 50 50" version="1.1" xmlns="http://www.w3.org/2000/svg" xmlns:xlink="http://www.w3.org/1999/xlink">
    <!-- Generator: Sketch 59.1 (86144) - https://sketch.com -->
    <title>paper-plane</title>
    <desc>Created with Sketch.</desc>
    <g id="Page-1" stroke="none" stroke-width="1" fill="none" fill-rule="evenodd">
        <g id="quote_form" transform="translate(-1175.000000, -51.000000)" fill="#EDC001" fill-rule="nonzero">
            <g id="timeline" transform="translate(215.000000, 50.000000)">
                <g id="paper-plane" transform="translate(960.000000, 1.000000)">
                    <path d="M0.00437881874,25.0232311 C0.0654786151,26.2142689 0.747759674,27.2166274 1.73553971,27.5586085 L20.0247454,33.9619104 L20.6968432,48.560967 C20.7273931,49.1387972 21.063442,49.6458726 21.542057,49.8345519 C21.6744399,49.8935142 21.8170061,49.9170991 21.949389,49.9170991 C22.3058045,49.9170991 22.6418534,49.7520047 22.8862525,49.4336085 L29.3526477,41.1435142 L38.5176171,48.4902123 C38.9249491,48.8204009 39.4035642,48.9972877 39.9025458,48.9972877 C41.0532587,48.9972877 42.051222,48.0538915 42.2956212,46.7331368 L49.9025458,1.83926887 C49.9941955,1.32040094 49.8210794,0.777948113 49.4748473,0.447759434 C49.1184318,0.105778302 48.6398167,0.0232311321 48.2121181,0.22370283 L1.47077393,22.2520047 C0.523727088,22.7472877 -0.0567209776,23.8321934 0.00437881874,25.0232311 Z M23.0186354,44.940684 L22.6011202,35.7307783 L27.2854379,39.4807783 L23.0186354,44.940684 Z M39.8618126,46.060967 L23.1815682,32.6883255 L46.5726069,6.48549528 L39.8618126,46.060967 Z M44.0064155,5.32983491 L20.8801426,31.2378538 L2.61130346,24.8463443 L44.0064155,5.32983491 Z" id="Shape"></path>
                </g>
            </g>
        </g>
    </g>
</svg>

<svg xmlns="http://www.w3.org/2000/svg" width="50" height="50" viewBox="0 0 50 50"><path fill="#EDC001" d="M.004 25.023c.061 1.191.744 2.194 1.732 2.536l18.289 6.403.672 14.599c.03.578.366 1.085.845 1.274.132.059.275.082.407.082.357 0 .693-.165.937-.483l6.467-8.29 9.165 7.346c.407.33.886.507 1.385.507 1.15 0 2.148-.943 2.393-2.264L49.903 1.84c.091-.519-.082-1.061-.428-1.391-.357-.342-.835-.425-1.263-.224L1.471 22.252c-.947.495-1.528 1.58-1.467 2.771zM23.02 44.941l-.418-9.21 4.684 3.75-4.266 5.46zm16.843 1.12l-16.68-13.373 23.39-26.203-6.71 39.576zM44.006 5.33L20.88 31.238 2.611 24.846 44.006 5.33z"/></svg>
